X:1
T: Kissing is best of a'
C:
R:Reel
Q: 232
K:G
M:4/4
L:1/8
|:c|BG Gc BG cG|BG GB gd ec|BG Gc BG dG|A=F FA c2 BA|
BG Gc BG cG|BG GB gd ec|BG Gc BG dG|A=F FA c2 BA|
B1/2c1/2d dg gd ec|B1/2c1/2d df g2 gd|B1/2c1/2d dg gd ec|A=F FA c2 BA|
B1/2c1/2d dg gd ec|B1/2c1/2d df g2 gd|eg dg cg Bg|A=F FA cB G:|
